!!!COM: Beethoven
!!!OTL: 13 Variationen uber "Es war einmal ein alter Mann" aus "Das rote Kappchen" von K. Ditters von Dittersdorf
!!!Variation: Variation 4 e
**function	**harm	**kern	**kern
*	*	*clefF4	*clefG2
*	*	*k[f#c#g#]	*k[f#c#g#]
*M2/4	*M2/4	*M2/4	*M2/4
*A:	*A:	*A:	*A:
8T	F#:maj	8r	8e'J
=176	=176	=176	=176
8T	F#:maj	8A'L	(16g#LL
.	.	.	16aJJ)
8T	C#:maj	8e'J	8b'
8T	F#:maj/3	8c#'L	(16b#LL
.	.	.	16cc#JJ)
8T	B:maj	8A'J	8dd'
=177	=177	=177	=177
2T	C#:maj	8G#'L	(16dd#LL
.	.	.	16eeJJ)
.	.	8B'J	8ff#'
.	.	8G#'L	(16dd#LL
.	.	.	16eeJJ)
.	.	8E'J	8dd'
=178	=178	=178	=178
2T	F#:maj	8A'L	(16b#LL
.	.	.	16cc#JJ)
.	.	8E'J	8b'
.	.	8C#'L	(16b#LL
.	.	.	16cc#JJ)
.	.	8AA'J	8dd'
=179	=179	=179	=179
2T	C#:maj	8GG#'L	(16dd#LL
.	.	.	16eeJJ)
.	.	8BB'J	8ff#'
.	.	8GG#'L	(16dd#LL
.	.	.	16eeJJ)
.	.	8EE'J	8dd'
=180	=180	=180	=180
8T	F#:maj	8AA'L	(16b#LL
.	.	.	16cc#JJ)
8T	F#:maj/3	8C#'J	8ee'
8P	G#:min/b3	8D'L	(16cc#LL
.	.	.	16bJJ)
8D	C#:maj	8E'J	8ee'
=181	=181	=181	=181
8T	F#:maj	8AA'	(16bLL
.	.	.	16aJJ)
8P	B:maj	8r	8aa'
8P	F#:maj/3	(16G#LL	(16gg#LL
.	.	16AJ)	16aaJJ)
8P	B:maj	8D'J	8ff#'
=182	=182	=182	=182
4P	A#:min	(16G#LL	(16gg#LL
.	.	16AJ)	16aaJJ)
.	.	8C#'J	8ee'
8D	F#:maj/5	8EL	(16cc#LL
.	.	.	16bJJ)
8D	C#:maj	8EEJ	8ee'
=183	=183	=183	=183
8T	F#:maj	8AA	(16bLL
.	.	.	16aJJ)
8T	F#:maj	8r	8ee'
8T	C#:maj	(16G#LL	(16gg#LL
.	.	16AJ)	16aaJJ)
8T	B:maj	8D'J	8ff#'
=184	=184	=184	=184
4T	A#:min	(16G#LL	(16gg#LL
.	.	16AJ)	16aaJJ)
.	.	8C#'J	8ee'
8D	F#:maj/5	8EL	(16cc#LL
.	.	.	16bJJ)
8D	C#:maj	8EEJ	8ee'
=185	=185	=185	=185
4.T	F#:maj	4AA	4a
.	.	8r	8r
*-	*-	*-	*-
!!!EMD: Edited in humdrumR 0.7.0.3 on 2024-01-19
